contents/images/courses/1_5/aws-lambda.svg

<svg height="310" preserveAspectRatio="xMidYMid" viewBox="0 0 256 310" width="256" xmlns="http://www.w3.org/2000/svg"><path d="m0 245.262 16.322 8.161 2.678-4.755v-189.335l-2.678-3.494-16.322 8.161z" fill="#9d5025"/><path d="m47.678 63.57-31.356-7.731v197.584l31.356-7.302z" fill="#f68536"/><path d="m143.893 78.604 22.335-11.597 74.309 28.778-19.758 2.577z" fill="#6b3a19"/><path d="m144.752 230.658 21.906 11.597 74.308-28.778-19.758-2.578z" fill="#fbbf93"/><path d="m150.336 198.872 39.087 5.155 2.244-4.027v-90l-2.244-4.765-39.087 5.154z" fill="#9d5025"/><path d="m35.651 45.96 24.054-12.027 2.628 5.067v231l-2.628 5.329-24.054-12.027z" fill="#9d5025"/><path d="m108.671 259.007-48.966 15.892v-240.966l48.966 15.893z" fill="#f68536"/><path d="m89.772 289.933 38.228 19.329 4-4.595v-299l-4-5.667-38.228 19.329z" fill="#9d5025"/><path d="m219.919 98.362 19.759-2.577 1.697 2.465v112.75l-1.697 2.906-19.759-2.577z" fill="#9d5025"/><g fill="#f68536"><path d="m189.423 105.235v99.221l40.805-49.825z"/><path d="m239.678 55.839-111.678-55.839v309.262l128-64v-181.262zm0 158.217-73.45 21.936v-162.722l73.45 21.936z"/></g></svg>

<?xml version="1.0" encoding="UTF-8" standalone="no"?>
<svg width="256px" height="310px" viewBox="0 0 256 310" version="1.1" xmlns="http://www.w3.org/2000/svg" xmlns:xlink="http://www.w3.org/1999/xlink" preserveAspectRatio="xMidYMid">
	<g>
		<path d="M0,245.262 L16.322,253.423 L19,248.668 L19,59.333 L16.322,55.839 L0,64 L0,245.262" fill="#9D5025"></path>
		<path d="M47.678,63.57 L16.322,55.839 L16.322,253.423 L47.678,246.121 L47.678,63.57" fill="#F68536"></path>
		<path d="M143.893,78.604 L166.228,67.007 L240.537,95.785 L220.779,98.362 L143.893,78.604" fill="#6B3A19"></path>
		<path d="M144.752,230.658 L166.658,242.255 L240.966,213.477 L221.208,210.899 L144.752,230.658" fill="#FBBF93"></path>
		<path d="M150.336,198.872 L189.423,204.027 L191.667,200 L191.667,110 L189.423,105.235 L150.336,110.389 L150.336,198.872" fill="#9D5025"></path>
		<path d="M35.651,45.96 L59.705,33.933 L62.333,39 L62.333,270 L59.705,275.329 L35.651,263.302 L35.651,45.96" fill="#9D5025"></path>
		<path d="M108.671,259.007 L59.705,274.899 L59.705,33.933 L108.671,49.826 L108.671,259.007" fill="#F68536"></path>
		<path d="M89.772,289.933 L128,309.262 L132,304.667 L132,5.667 L128,0 L89.772,19.329 L89.772,289.933" fill="#9D5025"></path>
		<path d="M219.919,98.362 L239.678,95.785 L241.375,98.25 L241.375,211 L239.678,213.906 L219.919,211.329 L219.919,98.362" fill="#9D5025"></path>
		<path d="M189.423,105.235 L189.423,204.456 L230.228,154.631 L189.423,105.235" fill="#F68536"></path>
		<path d="M239.678,55.839 L128,0 L128,309.262 L256,245.262 L256,64 L239.678,55.839 L239.678,55.839 Z M239.678,214.056 L166.228,235.992 L166.228,73.27 L239.678,95.206 L239.678,214.056 L239.678,214.056 Z" fill="#F68536"></path>
	</g>
</svg>
